X:1
T:Sleeping Susan
C:Paul Rosen
S:Copyright 2005, Paul Rosen
M:6/8
L:1/8
Q:108
R:Circus Jig
K:D
|:"D"dcd f2d|B2A F2A|"Em"BAG B2G|"A7"cBA c2A|"D"dcd f2d|B2A F2A|"A7"B2c edc|"D"d3 d3:|
|:"B7"Bc^d Bcd|"E7"e2f ^g3|"A"a^ga "E7"bag|"A7"a2e c2e|"D"dcd f3|"G"dcd g3|"A7"B2c edc|"D"d3 d3:|
